X:1
T:The Song of the Morning
T:The Song of the Morning
T:Ira Bishop Wilson
T:Lizzie DeArmond, 1915
T:Public Domain Courtesy of the Cyber Hymnal™
C:Ira Bishop Wilson
Z:Public Domain
Z:Courtesy of the Cyber Hymnal™
%%score ( 1 2 ) ( 3 4 )
L:1/8
Q:1/4=100
M:4/4
K:Bb
V:1 treble 
V:2 treble 
V:3 bass 
V:4 bass 
V:1
 B2 D>F A2 G>D | F4 E4 | [Ec]2 [D=B]>[Ec] [Fd]2 [Ec]>[EA] | G4 F4 | ^F2 A>c e2 d>A | c4 B4 | %6
w: 1.~“Joy” is the song of the|morn- ing;|Sweet with the frag- rance of|flow- ers;|Stream- eth the dawn- light of|glad- ness|
w: 2.~“Joy” an- gels chant in His|hea- ven,|Lay- ing their crowns at His|fe- et;|“Bless- ing and hon- or, and|glo- ry|
w: 3.~Joy, with our heart’s love out-|pour- ing,|Up- ward we look to the|ski- es,|Pray- ing that Je- sus, our|Sav- ior,|
 A2 ^G>A B2 A>=G | (z2 !>![A,E]2 !>![A,D]2 !>![A,C]2) ||"^Refrain" z2 [G,B,]2 (z2 [G,B,]2) | %9
w: Down on this fair land of|||
w: Be to our king,” they re-|||
w: Now in our souls may a-|||
 E>F G>A [Fd]2 [Ec]2 | (z2 [G,B,]2) (z2 [G,B,]2) | E>F G>A [Fd]2 [Ec]2 | !>!B2 BB !>!B>B BB | %13
w: * ours. * * * *||||
w: * peat. Joy! joy! Set the||* e- choes ring- ing; Joy!|joy! Hap- py hearts are sing- ing,|
w: * rise. * * * *||||
 [B,EB]2 [CEB]2 [^C=EB]4 | [DFB]2 DE F>G F2 | [Fd]2 !fermata![Fd][Ec] [DB]4 |] %16
w: |||
w: Joy! for He|lives a- gain no more to|die! Joy for the|
w: |||
V:2
 x8 | x8 | x8 | D8 | x8 | x8 | x8 | F8 || F4 =E4 | x8 | F4 =E4 | x8 | [DFB]4 [DFB]4 | x8 | x8 | %15
 x8 |] %16
V:3
 A,,2 [F,B,]2 F,,2 [F,B,D]2 | (A,,2 [F,A,C]>[F,A,C]) ([F,A,C]2 [F,A,C]2) | %2
 A,,2 [F,A,]2 F,,2 [F,A,]2 | (B,,2 [F,B,]>[F,B,]) ([F,B,]2 [F,B,]2) | A,,2 [^F,A,D]2 D,2 [F,CD]2 | %5
 (G,,2 [G,B,D]>[G,B,D]) ([G,B,D]2 [G,B,D]2) | C,2 [A,CF]2 [C,D]2 [C,C]>[C,B,] | %7
 ([F,A,]2 !>![G,,G,]2 !>![F,,F,]2 !>![E,,E,]2) || [D,,D,]4 [_D,,_D,]4 | %9
 [C,,C,]2 [F,A,C]2 F,,2 [F,A,]2 | [D,,D,]4 [_D,,_D,]4 | [C,,C,]2 [F,A,C]2 F,,2 [F,A,]2 | %12
 B,,2 B,2 _A,,2 _A,2 | G,,2 G,2 _G,,2 _G,2 | [F,,F,]2 D,E, F,>G, F,2 | %15
 [F,B,]2 !fermata![F,A,]F, [B,,F,]4 |] %16
V:4
 x8 | x8 | x8 | x8 | x8 | x8 | x8 | x8 || x8 | x8 | x8 | x8 | x8 | x8 | x8 | x3 F, x4 |] %16

